X: 9271
T: Dance Above The Rainbow
R: jig
M: 6/8
K: Dmajor
|:D2 D DFA|dcB A2 A|Bcd AFD|EA,A, EA,A,|
~D3 DFA|dcB A2 A|BGd cAe|1 ~d3 dAF:|2 ~d3 d2 e||
|:~f3 fef|ABA def|~g3 gfg|~B3 efg|
~f3 fef|ABA dcd|BGd cAe|1 ~d3 d2 e:|2 ~d3 dAF||

